X: 6257
T: Carolan's Cup
R: jig
M: 6/8
K: Bminor
|:d/e/|f>gf/e/ dfa|Te2 d/B/ A2 f/e/|dcB A<FA|Bba bfe|
f>gf/e/ dfa|eg/f/e/d/ c2 e|dcB AFA|B3 B2:|
|:c|d>ed/c/ d2 f|a>ba/f/ a2 f|e>fe/d/ efa|Hb3- bfa|
baf/e/ dfa|Te2 d/B/ A2 f/e/|dcB AFA|B3 B2:|

